X: 1
T: Du's Bun Lang Awa An A'm Tocht Lang Ta See Dee
M: 3/4
L: 1/8
R: waltz
K: Gmaj
D |: D/E/F/G/ A/B/A/G/ A>B |cc G/cG/ E/D/C |
D/E/F/G/ A/B/A/G/ [A2D2] | d2 BA/G/ F/E/D :|
|: f>d df/d/ D>f | ec cg/c/ ef/g/ |
(3afa (3fef de/f/ | d2 BA/G/ FE/D/ :|
